bernoullicharts/2014_lin_x_4_0_mean.svg

<?xml version="1.0" encoding="utf-8" standalone="no"?>
<!DOCTYPE svg PUBLIC "-//W3C//DTD SVG 1.1//EN"
  "http://www.w3.org/Graphics/SVG/1.1/DTD/svg11.dtd">
<!-- Created with matplotlib (https://matplotlib.org/) -->
<svg height="345.6pt" version="1.1" viewBox="0 0 460.8 345.6" width="460.8pt" xmlns="http://www.w3.org/2000/svg" xmlns:xlink="http://www.w3.org/1999/xlink">
 <defs>
  <style type="text/css">
*{stroke-linecap:butt;stroke-linejoin:round;}
  </style>
 </defs>
 <g id="figure_1">
  <g id="patch_1">
   <path d="M 0 345.6 
L 460.8 345.6 
L 460.8 0 
L 0 0 
z
" style="fill:#ffffff;"/>
  </g>
  <g id="axes_1">
   <g id="patch_2">
    <path d="M 57.6 307.584 
L 414.72 307.584 
L 414.72 41.472 
L 57.6 41.472 
z
" style="fill:#ffffff;"/>
   </g>
   <g id="matplotlib.axis_1">
    <g id="xtick_1">
     <g id="line2d_1">
      <defs>
       <path d="M 0 0 
L 0 3.5 
" id="m414b716939" style="stroke:#000000;stroke-width:0.8;"/>
      </defs>
      <g>
       <use style="stroke:#000000;stroke-width:0.8;" x="73.69878" xlink:href="#m414b716939" y="307.584"/>
      </g>
     </g>
     <g id="text_1">
      <text style="font-family:DejaVu Sans;font-size:10px;font-style:normal;font-weight:normal;text-anchor:middle;" transform="rotate(-0, 73.69878, 322.182437)" x="73.69878" y="322.182437">0.00</text>
     </g>
    </g>
    <g id="xtick_2">
     <g id="line2d_2">
      <g>
       <use style="stroke:#000000;stroke-width:0.8;" x="140.672175" xlink:href="#m414b716939" y="307.584"/>
      </g>
     </g>
     <g id="text_2">
      <text style="font-family:DejaVu Sans;font-size:10px;font-style:normal;font-weight:normal;text-anchor:middle;" transform="rotate(-0, 140.672175, 322.182437)" x="140.672175" y="322.182437">0.05</text>
     </g>
    </g>
    <g id="xtick_3">
     <g id="line2d_3">
      <g>
       <use style="stroke:#000000;stroke-width:0.8;" x="207.64557" xlink:href="#m414b716939" y="307.584"/>
      </g>
     </g>
     <g id="text_3">
      <text style="font-family:DejaVu Sans;font-size:10px;font-style:normal;font-weight:normal;text-anchor:middle;" transform="rotate(-0, 207.64557, 322.182437)" x="207.64557" y="322.182437">0.10</text>
     </g>
    </g>
    <g id="xtick_4">
     <g id="line2d_4">
      <g>
       <use style="stroke:#000000;stroke-width:0.8;" x="274.618965" xlink:href="#m414b716939" y="307.584"/>
      </g>
     </g>
     <g id="text_4">
      <text style="font-family:DejaVu Sans;font-size:10px;font-style:normal;font-weight:normal;text-anchor:middle;" transform="rotate(-0, 274.618965, 322.182437)" x="274.618965" y="322.182437">0.15</text>
     </g>
    </g>
    <g id="xtick_5">
     <g id="line2d_5">
      <g>
       <use style="stroke:#000000;stroke-width:0.8;" x="341.592359" xlink:href="#m414b716939" y="307.584"/>
      </g>
     </g>
     <g id="text_5">
      <text style="font-family:DejaVu Sans;font-size:10px;font-style:normal;font-weight:normal;text-anchor:middle;" transform="rotate(-0, 341.592359, 322.182437)" x="341.592359" y="322.182437">0.20</text>
     </g>
    </g>
    <g id="xtick_6">
     <g id="line2d_6">
      <g>
       <use style="stroke:#000000;stroke-width:0.8;" x="408.565754" xlink:href="#m414b716939" y="307.584"/>
      </g>
     </g>
     <g id="text_6">
      <text style="font-family:DejaVu Sans;font-size:10px;font-style:normal;font-weight:normal;text-anchor:middle;" transform="rotate(-0, 408.565754, 322.182437)" x="408.565754" y="322.182437">0.25</text>
     </g>
    </g>
    <g id="text_7">
     <text style="font-family:DejaVu Sans;font-size:10px;font-style:normal;font-weight:normal;text-anchor:middle;" transform="rotate(-0, 236.16, 335.860562)" x="236.16" y="335.860562">Input Coin's Heads Probability (λ)</text>
    </g>
   </g>
   <g id="matplotlib.axis_2">
    <g id="ytick_1">
     <g id="line2d_7">
      <defs>
       <path d="M 0 0 
L -3.5 0 
" id="mf678a86f91" style="stroke:#000000;stroke-width:0.8;"/>
      </defs>
      <g>
       <use style="stroke:#000000;stroke-width:0.8;" x="57.6" xlink:href="#mf678a86f91" y="295.488"/>
      </g>
     </g>
     <g id="text_8">
      <text style="font-family:DejaVu Sans;font-size:10px;font-style:normal;font-weight:normal;text-anchor:end;" transform="rotate(-0, 50.6, 299.287219)" x="50.6" y="299.287219">0.0</text>
     </g>
    </g>
    <g id="ytick_2">
     <g id="line2d_8">
      <g>
       <use style="stroke:#000000;stroke-width:0.8;" x="57.6" xlink:href="#mf678a86f91" y="245.602601"/>
      </g>
     </g>
     <g id="text_9">
      <text style="font-family:DejaVu Sans;font-size:10px;font-style:normal;font-weight:normal;text-anchor:end;" transform="rotate(-0, 50.6, 249.401819)" x="50.6" y="249.401819">0.2</text>
     </g>
    </g>
    <g id="ytick_3">
     <g id="line2d_9">
      <g>
       <use style="stroke:#000000;stroke-width:0.8;" x="57.6" xlink:href="#mf678a86f91" y="195.717201"/>
      </g>
     </g>
     <g id="text_10">
      <text style="font-family:DejaVu Sans;font-size:10px;font-style:normal;font-weight:normal;text-anchor:end;" transform="rotate(-0, 50.6, 199.51642)" x="50.6" y="199.51642">0.4</text>
     </g>
    </g>
    <g id="ytick_4">
     <g id="line2d_10">
      <g>
       <use style="stroke:#000000;stroke-width:0.8;" x="57.6" xlink:href="#mf678a86f91" y="145.831802"/>
      </g>
     </g>
     <g id="text_11">
      <text style="font-family:DejaVu Sans;font-size:10px;font-style:normal;font-weight:normal;text-anchor:end;" transform="rotate(-0, 50.6, 149.631021)" x="50.6" y="149.631021">0.6</text>
     </g>
    </g>
    <g id="ytick_5">
     <g id="line2d_11">
      <g>
       <use style="stroke:#000000;stroke-width:0.8;" x="57.6" xlink:href="#mf678a86f91" y="95.946403"/>
      </g>
     </g>
     <g id="text_12">
      <text style="font-family:DejaVu Sans;font-size:10px;font-style:normal;font-weight:normal;text-anchor:end;" transform="rotate(-0, 50.6, 99.745621)" x="50.6" y="99.745621">0.8</text>
     </g>
    </g>
    <g id="ytick_6">
     <g id="line2d_12">
      <g>
       <use style="stroke:#000000;stroke-width:0.8;" x="57.6" xlink:href="#mf678a86f91" y="46.061003"/>
      </g>
     </g>
     <g id="text_13">
      <text style="font-family:DejaVu Sans;font-size:10px;font-style:normal;font-weight:normal;text-anchor:end;" transform="rotate(-0, 50.6, 49.860222)" x="50.6" y="49.860222">1.0</text>
     </g>
    </g>
    <g id="text_14">
     <text style="font-family:DejaVu Sans;font-size:10px;font-style:normal;font-weight:normal;text-anchor:middle;" transform="rotate(-90, 28.617187, 174.528)" x="28.617187" y="174.528">Simulated Mean / Function Value</text>
    </g>
   </g>
   <g id="line2d_13">
    <path clip-path="url(#pdf60fc549c)" d="M 73.832727 295.388229 
L 87.36 285.312386 
L 100.887273 275.236543 
L 114.414545 265.160701 
L 127.941818 255.084858 
L 141.469091 245.009015 
L 154.996364 234.933172 
L 168.523636 224.857329 
L 182.050909 214.781486 
L 195.578182 204.705643 
L 209.105455 194.6298 
L 222.632727 184.553957 
L 236.16 174.478115 
L 249.687273 164.402272 
L 263.214545 154.326429 
L 276.741818 144.250586 
L 290.269091 134.174743 
L 303.796364 124.0989 
L 317.323636 114.023057 
L 330.850909 103.947214 
L 344.378182 93.871372 
L 357.905455 83.795529 
L 371.432727 73.719686 
L 384.96 63.643843 
L 398.487273 53.568 
" style="fill:none;stroke:#1f77b4;stroke-linecap:square;stroke-width:1.5;"/>
   </g>
   <g id="line2d_14">
    <path clip-path="url(#pdf60fc549c)" d="M 73.832727 295.488 
L 87.36 286.508628 
L 100.887273 275.034986 
L 114.414545 260.069366 
M 141.469091 251.588849 
L 154.996364 245.602601 
L 168.523636 226.646149 
L 182.050909 219.163339 
L 195.578182 213.675945 
L 209.105455 193.721785 
L 222.632727 179.25502 
L 236.16 176.76075 
L 249.687273 166.78367 
L 263.214545 154.811174 
M 290.269091 129.868474 
L 303.796364 114.902854 
" style="fill:none;stroke:#ff7f0e;stroke-linecap:square;stroke-width:1.5;"/>
   </g>
   <g id="line2d_15">
    <path clip-path="url(#pdf60fc549c)" d="M 73.832727 295.488 
L 87.36 282.517796 
L 100.887273 267.552176 
L 114.414545 261.067074 
L 127.941818 247.598017 
L 141.469091 241.611769 
L 154.996364 232.632397 
L 168.523636 230.138127 
L 182.050909 223.653025 
L 195.578182 204.696573 
L 209.105455 190.229807 
L 222.632727 186.238975 
L 236.16 163.790546 
L 249.687273 166.284816 
L 263.214545 151.81805 
L 276.741818 151.319196 
L 290.269091 136.353576 
" style="fill:none;stroke:#2ca02c;stroke-linecap:square;stroke-width:1.5;"/>
   </g>
   <g id="line2d_16">
    <path clip-path="url(#pdf60fc549c)" d="M 73.832727 295.488 
L 87.36 283.01665 
L 100.887273 270.5453 
L 114.414545 270.5453 
L 127.941818 254.083119 
L 141.469091 242.609477 
L 154.996364 241.112915 
L 168.523636 231.634689 
L 182.050909 215.172507 
L 195.578182 205.694281 
L 209.105455 195.717201 
L 222.632727 188.733245 
L 236.16 179.25502 
" style="fill:none;stroke:#d62728;stroke-linecap:square;stroke-width:1.5;"/>
   </g>
   <g id="line2d_17">
    <path clip-path="url(#pdf60fc549c)" d="M 73.832727 295.488 
L 87.36 288.00519 
L 100.887273 274.037278 
L 114.414545 267.552176 
L 127.941818 251.588849 
L 141.469091 242.110623 
L 154.996364 232.133543 
L 168.523636 228.641565 
M 195.578182 209.685113 
L 209.105455 183.245851 
L 222.632727 188.733245 
L 236.16 169.776794 
L 249.687273 168.779086 
M 276.741818 144.834094 
M 303.796364 127.374204 
" style="fill:none;stroke:#9467bd;stroke-linecap:square;stroke-width:1.5;"/>
   </g>
   <g id="line2d_18">
    <path clip-path="url(#pdf60fc549c)" d="M 87.36 285.012066 
L 100.887273 274.037278 
L 114.414545 266.554468 
L 127.941818 253.085411 
L 141.469091 245.602601 
L 154.996364 232.133543 
L 168.523636 224.650733 
L 182.050909 212.179383 
L 195.578182 206.193135 
L 209.105455 188.234391 
L 222.632727 193.222931 
L 236.16 171.273356 
" style="fill:none;stroke:#8c564b;stroke-linecap:square;stroke-width:1.5;"/>
   </g>
   <g id="patch_3">
    <path d="M 57.6 307.584 
L 57.6 41.472 
" style="fill:none;stroke:#000000;stroke-linecap:square;stroke-linejoin:miter;stroke-width:0.8;"/>
   </g>
   <g id="patch_4">
    <path d="M 414.72 307.584 
L 414.72 41.472 
" style="fill:none;stroke:#000000;stroke-linecap:square;stroke-linejoin:miter;stroke-width:0.8;"/>
   </g>
   <g id="patch_5">
    <path d="M 57.6 307.584 
L 414.72 307.584 
" style="fill:none;stroke:#000000;stroke-linecap:square;stroke-linejoin:miter;stroke-width:0.8;"/>
   </g>
   <g id="patch_6">
    <path d="M 57.6 41.472 
L 414.72 41.472 
" style="fill:none;stroke:#000000;stroke-linecap:square;stroke-linejoin:miter;stroke-width:0.8;"/>
   </g>
   <g id="text_15">
    <text style="font-family:DejaVu Sans;font-size:12px;font-style:normal;font-weight:normal;" transform="translate(184.459688 22.034625)">Simulated Means</text>
    <text style="font-family:DejaVu Sans;font-size:12px;font-style:normal;font-weight:normal;" transform="translate(132.609375 35.472)">(Wasserstein Distances in Legend)</text>
   </g>
   <g id="legend_1">
    <g id="patch_7">
     <path d="M 71.387188 137.54075 
L 407.72 137.54075 
Q 409.72 137.54075 409.72 135.54075 
L 409.72 48.472 
Q 409.72 46.472 407.72 46.472 
L 71.387188 46.472 
Q 69.387188 46.472 69.387188 48.472 
L 69.387188 135.54075 
Q 69.387188 137.54075 71.387188 137.54075 
z
" style="fill:#ffffff;opacity:0.8;stroke:#cccccc;stroke-linejoin:miter;"/>
    </g>
    <g id="line2d_19">
     <path d="M 73.387188 54.570438 
L 93.387188 54.570438 
" style="fill:none;stroke:#1f77b4;stroke-linecap:square;stroke-width:1.5;"/>
    </g>
    <g id="line2d_20"/>
    <g id="text_16">
     <text style="font-family:DejaVu Sans;font-size:10px;font-style:normal;font-weight:normal;text-anchor:start;" transform="rotate(-0, 101.387188, 58.070438)" x="101.387188" y="58.070438">x*4.0</text>
    </g>
    <g id="line2d_21">
     <path d="M 73.387188 69.248563 
L 93.387188 69.248563 
" style="fill:none;stroke:#ff7f0e;stroke-linecap:square;stroke-width:1.5;"/>
    </g>
    <g id="line2d_22"/>
    <g id="text_17">
     <text style="font-family:DejaVu Sans;font-size:10px;font-style:normal;font-weight:normal;text-anchor:start;" transform="rotate(-0, 101.387188, 72.748563)" x="101.387188" y="72.748563">Simul. Mean of 2014 Lin. x*4.0 (WD=0.015996)</text>
    </g>
    <g id="line2d_23">
     <path d="M 73.387188 83.926688 
L 93.387188 83.926688 
" style="fill:none;stroke:#2ca02c;stroke-linecap:square;stroke-width:1.5;"/>
    </g>
    <g id="line2d_24"/>
    <g id="text_18">
     <text style="font-family:DejaVu Sans;font-size:10px;font-style:normal;font-weight:normal;text-anchor:start;" transform="rotate(-0, 101.387188, 87.426688)" x="101.387188" y="87.426688">Simul. Mean of 2016 Lin. x*4.0 (WD=0.016193)</text>
    </g>
    <g id="line2d_25">
     <path d="M 73.387188 98.604813 
L 93.387188 98.604813 
" style="fill:none;stroke:#d62728;stroke-linecap:square;stroke-width:1.5;"/>
    </g>
    <g id="line2d_26"/>
    <g id="text_19">
     <text style="font-family:DejaVu Sans;font-size:10px;font-style:normal;font-weight:normal;text-anchor:start;" transform="rotate(-0, 101.387188, 102.104813)" x="101.387188" y="102.104813">Simul. Mean of Low-Mean Lin. x*4.0 (WD=0.012414)</text>
    </g>
    <g id="line2d_27">
     <path d="M 73.387188 113.282938 
L 93.387188 113.282938 
" style="fill:none;stroke:#9467bd;stroke-linecap:square;stroke-width:1.5;"/>
    </g>
    <g id="line2d_28"/>
    <g id="text_20">
     <text style="font-family:DejaVu Sans;font-size:10px;font-style:normal;font-weight:normal;text-anchor:start;" transform="rotate(-0, 101.387188, 116.782938)" x="101.387188" y="116.782938">Simul. Mean of 2019x*4.0 (WD=0.011889)</text>
    </g>
    <g id="line2d_29">
     <path d="M 73.387188 127.961063 
L 93.387188 127.961063 
" style="fill:none;stroke:#8c564b;stroke-linecap:square;stroke-width:1.5;"/>
    </g>
    <g id="line2d_30"/>
    <g id="text_21">
     <text style="font-family:DejaVu Sans;font-size:10px;font-style:normal;font-weight:normal;text-anchor:start;" transform="rotate(-0, 101.387188, 131.461063)" x="101.387188" y="131.461063">Simul. Mean of Low-Mean M=0.49999 x*4.0 (WD=0.006974)</text>
    </g>
   </g>
  </g>
 </g>
 <defs>
  <clipPath id="pdf60fc549c">
   <rect height="266.112" width="357.12" x="57.6" y="41.472"/>
  </clipPath>
 </defs>
</svg>

<svg height="460.8" viewBox="0 0 460.8 345.6" width="614.4" xmlns="http://www.w3.org/2000/svg" xmlns:xlink="http://www.w3.org/1999/xlink"><defs><style>*{stroke-linecap:butt;stroke-linejoin:round}</style></defs><g id="figure_1"><path d="M0 345.6h460.8V0H0z" fill="#fff" id="patch_1"/><g id="axes_1"><path d="M57.6 307.584h357.12V41.472H57.6z" fill="#fff" id="patch_2"/><g id="matplotlib.axis_1"><g id="xtick_1"><g id="line2d_1"><defs><path d="M0 0v3.5" id="m414b716939" stroke="#000" stroke-width=".8"/></defs><use x="73.699" xlink:href="#m414b716939" y="307.584" stroke="#000" stroke-width=".8"/></g><text x="73.699" y="322.182" font-family="DejaVu Sans" font-size="10" font-weight="400" text-anchor="middle" id="text_1">0.00</text></g><g id="xtick_2"><use x="140.672" xlink:href="#m414b716939" y="307.584" stroke="#000" stroke-width=".8" id="line2d_2"/><text x="140.672" y="322.182" font-family="DejaVu Sans" font-size="10" font-weight="400" text-anchor="middle" id="text_2">0.05</text></g><g id="xtick_3"><use x="207.646" xlink:href="#m414b716939" y="307.584" stroke="#000" stroke-width=".8" id="line2d_3"/><text x="207.646" y="322.182" font-family="DejaVu Sans" font-size="10" font-weight="400" text-anchor="middle" id="text_3">0.10</text></g><g id="xtick_4"><use x="274.619" xlink:href="#m414b716939" y="307.584" stroke="#000" stroke-width=".8" id="line2d_4"/><text x="274.619" y="322.182" font-family="DejaVu Sans" font-size="10" font-weight="400" text-anchor="middle" id="text_4">0.15</text></g><g id="xtick_5"><use x="341.592" xlink:href="#m414b716939" y="307.584" stroke="#000" stroke-width=".8" id="line2d_5"/><text x="341.592" y="322.182" font-family="DejaVu Sans" font-size="10" font-weight="400" text-anchor="middle" id="text_5">0.20</text></g><g id="xtick_6"><use x="408.566" xlink:href="#m414b716939" y="307.584" stroke="#000" stroke-width=".8" id="line2d_6"/><text x="408.566" y="322.182" font-family="DejaVu Sans" font-size="10" font-weight="400" text-anchor="middle" id="text_6">0.25</text></g><text x="236.16" y="335.861" font-family="DejaVu Sans" font-size="10" font-weight="400" text-anchor="middle" id="text_7">Input Coin&apos;s Heads Probability (λ)</text></g><g id="matplotlib.axis_2"><g id="ytick_1"><g id="line2d_7"><defs><path d="M0 0h-3.5" id="mf678a86f91" stroke="#000" stroke-width=".8"/></defs><use x="57.6" xlink:href="#mf678a86f91" y="295.488" stroke="#000" stroke-width=".8"/></g><text x="50.6" y="299.287" font-family="DejaVu Sans" font-size="10" font-weight="400" text-anchor="end" id="text_8">0.0</text></g><g id="ytick_2"><use x="57.6" xlink:href="#mf678a86f91" y="245.603" stroke="#000" stroke-width=".8" id="line2d_8"/><text x="50.6" y="249.402" font-family="DejaVu Sans" font-size="10" font-weight="400" text-anchor="end" id="text_9">0.2</text></g><g id="ytick_3"><use x="57.6" xlink:href="#mf678a86f91" y="195.717" stroke="#000" stroke-width=".8" id="line2d_9"/><text x="50.6" y="199.516" font-family="DejaVu Sans" font-size="10" font-weight="400" text-anchor="end" id="text_10">0.4</text></g><g id="ytick_4"><use x="57.6" xlink:href="#mf678a86f91" y="145.832" stroke="#000" stroke-width=".8" id="line2d_10"/><text x="50.6" y="149.631" font-family="DejaVu Sans" font-size="10" font-weight="400" text-anchor="end" id="text_11">0.6</text></g><g id="ytick_5"><use x="57.6" xlink:href="#mf678a86f91" y="95.946" stroke="#000" stroke-width=".8" id="line2d_11"/><text x="50.6" y="99.746" font-family="DejaVu Sans" font-size="10" font-weight="400" text-anchor="end" id="text_12">0.8</text></g><g id="ytick_6"><use x="57.6" xlink:href="#mf678a86f91" y="46.061" stroke="#000" stroke-width=".8" id="line2d_12"/><text x="50.6" y="49.86" font-family="DejaVu Sans" font-size="10" font-weight="400" text-anchor="end" id="text_13">1.0</text></g><text transform="rotate(-90 28.617 174.528)" x="28.617" y="174.528" font-family="DejaVu Sans" font-size="10" font-weight="400" text-anchor="middle" id="text_14">Simulated Mean / Function Value</text></g><path clip-path="url(#pdf60fc549c)" d="M73.833 295.388l13.527-10.076 13.527-10.075 13.528-10.076 13.527-10.076 13.527-10.076 13.527-10.076 13.528-10.076 13.527-10.076 13.527-10.075 13.527-10.076 13.528-10.076 13.527-10.076 13.527-10.076 13.528-10.076 13.527-10.075 13.527-10.076 13.527-10.076 13.528-10.076 13.527-10.076 13.527-10.076 13.527-10.075 13.528-10.076 13.527-10.076 13.527-10.076" fill="none" stroke="#1f77b4" stroke-linecap="square" stroke-width="1.5" id="line2d_13"/><path clip-path="url(#pdf60fc549c)" d="M73.833 295.488l13.527-8.98 13.527-11.473 13.528-14.966m27.054-8.48l13.527-5.986 13.528-18.957 13.527-7.483 13.527-5.487 13.527-19.954 13.528-14.467 13.527-2.494 13.527-9.977 13.528-11.973m27.054-24.943l13.527-14.965" fill="none" stroke="#ff7f0e" stroke-linecap="square" stroke-width="1.5" id="line2d_14"/><path clip-path="url(#pdf60fc549c)" d="M73.833 295.488l13.527-12.97 13.527-14.966 13.528-6.485 13.527-13.469 13.527-5.986 13.527-8.98 13.528-2.494 13.527-6.485 13.527-18.956 13.527-14.467 13.528-3.991 13.527-22.448 13.527 2.494 13.528-14.467 13.527-.499 13.527-14.965" fill="none" stroke="#2ca02c" stroke-linecap="square" stroke-width="1.5" id="line2d_15"/><path clip-path="url(#pdf60fc549c)" d="M73.833 295.488l13.527-12.471 13.527-12.472h13.528l13.527-16.462 13.527-11.474 13.527-1.496 13.528-9.478 13.527-16.462 13.527-9.479 13.527-9.977 13.528-6.984 13.527-9.478" fill="none" stroke="#d62728" stroke-linecap="square" stroke-width="1.5" id="line2d_16"/><path clip-path="url(#pdf60fc549c)" d="M73.833 295.488l13.527-7.483 13.527-13.968 13.528-6.485 13.527-15.963 13.527-9.478 13.527-9.977 13.528-3.492m27.054-18.957l13.527-26.44 13.528 5.488 13.527-18.956 13.527-.998M303.796 127.374" fill="none" stroke="#9467bd" stroke-linecap="square" stroke-width="1.5" id="line2d_17"/><path clip-path="url(#pdf60fc549c)" d="M87.36 285.012l13.527-10.975 13.528-7.483 13.527-13.469 13.527-7.482 13.527-13.47 13.528-7.482 13.527-12.472 13.527-5.986 13.527-17.959 13.528 4.989 13.527-21.95" fill="none" stroke="#8c564b" stroke-linecap="square" stroke-width="1.5" id="line2d_18"/><path d="M57.6 307.584V41.472" fill="none" stroke="#000" stroke-linecap="square" stroke-width=".8" id="patch_3"/><path d="M414.72 307.584V41.472" fill="none" stroke="#000" stroke-linecap="square" stroke-width=".8" id="patch_4"/><path d="M57.6 307.584h357.12" fill="none" stroke="#000" stroke-linecap="square" stroke-width=".8" id="patch_5"/><path d="M57.6 41.472h357.12" fill="none" stroke="#000" stroke-linecap="square" stroke-width=".8" id="patch_6"/><g id="text_15" font-family="DejaVu Sans" font-size="12" font-weight="400"><text transform="translate(184.46 22.035)">Simulated Means</text><text transform="translate(132.61 35.472)">(Wasserstein Distances in Legend)</text></g><g id="legend_1"><path d="M71.387 137.54H407.72q2 0 2-2V48.473q0-2-2-2H71.387q-2 0-2 2v87.069q0 2 2 2z" fill="#fff" opacity=".8" stroke="#ccc" id="patch_7"/><path d="M73.387 54.57h20" fill="none" stroke="#1f77b4" stroke-linecap="square" stroke-width="1.5" id="line2d_19"/><text x="101.387" y="58.07" font-family="DejaVu Sans" font-size="10" font-weight="400" id="text_16">x*4.0</text><path d="M73.387 69.249h20" fill="none" stroke="#ff7f0e" stroke-linecap="square" stroke-width="1.5" id="line2d_21"/><text x="101.387" y="72.749" font-family="DejaVu Sans" font-size="10" font-weight="400" id="text_17">Simul. Mean of 2014 Lin. x*4.0 (WD=0.015996)</text><path d="M73.387 83.927h20" fill="none" stroke="#2ca02c" stroke-linecap="square" stroke-width="1.5" id="line2d_23"/><text x="101.387" y="87.427" font-family="DejaVu Sans" font-size="10" font-weight="400" id="text_18">Simul. Mean of 2016 Lin. x*4.0 (WD=0.016193)</text><path d="M73.387 98.605h20" fill="none" stroke="#d62728" stroke-linecap="square" stroke-width="1.5" id="line2d_25"/><text x="101.387" y="102.105" font-family="DejaVu Sans" font-size="10" font-weight="400" id="text_19">Simul. Mean of Low-Mean Lin. x*4.0 (WD=0.012414)</text><path d="M73.387 113.283h20" fill="none" stroke="#9467bd" stroke-linecap="square" stroke-width="1.5" id="line2d_27"/><text x="101.387" y="116.783" font-family="DejaVu Sans" font-size="10" font-weight="400" id="text_20">Simul. Mean of 2019x*4.0 (WD=0.011889)</text><path d="M73.387 127.961h20" fill="none" stroke="#8c564b" stroke-linecap="square" stroke-width="1.5" id="line2d_29"/><text x="101.387" y="131.461" font-family="DejaVu Sans" font-size="10" font-weight="400" id="text_21">Simul. Mean of Low-Mean M=0.49999 x*4.0 (WD=0.006974)</text></g></g></g><defs><clipPath id="pdf60fc549c"><path d="M57.6 41.472h357.12v266.112H57.6z"/></clipPath></defs></svg>
